X:1
T:James Gibb editions
T:Tunc amplexus - Anerio
T:#
%%score [ 1 2 3 ]
L:1/8
Q:1/4=52
M:4/4
K:A
V:1 treble nm="Alto" snm="A"
V:2 treble-8 nm="Tenor" snm="T"
V:3 bass nm="Bass" snm="B"
V:1
 z4"^Tunc amplexus""^Felice Anerio\n (1560-1614)""^andante"!p! F2 B2 | A2 FG (A3 =G/F/ | %2
w: Tunc am-|ple- xus, tunc o\- * *|
w: Tam quod|quae- si- vi vi\- * *|
 E2) E2 F2 z!f! A |[M:4/4] !>!=G F2 !>!E2 D2"^rall."[Q:1/4=51] (C- | %4
w: * scu- la Quae|vinc- unt mel- lis po\-|
w: * de- o: Quod|con- cu- pi- vi te\-|
[Q:1/4=50] C/[Q:1/4=49]B,/[Q:1/4=47] B,2)[Q:1/4=45] ^A,[Q:1/4=45] !fermata!B,2 z!pp![Q:1/4=48] F | %5
w: * * * cu- la. Tunc|
w: * * * ne- o: A-|
 !>!=G2 F2-"^," F B2 =A |[Q:1/4=48][Q:1/4=48][Q:1/4=48] ^G2 G2"^," F!mf! !>!C2 D | %7
w: fe- lix * Chri- sti|co- pu- la Sed in|
w: mo- re * Je- su|lan- gue- o, Et cor-|
 E[Q:1/4=47] !>!C2[Q:1/4=45] B,[Q:1/4=44] (^A,[Q:1/4=43] B,2)[Q:1/4=42] A, | %8
w: his par- va mo\- * ru-|
w: de to- tus ar\- * de-|
[Q:1/4=42] !fermata!B,8 |] %9
w: la.|
w: o.|
V:2
!p! B2 e2 (d2 B/c/d/e/ | f2) d2 e (f2 e/d/ | c d2) c d4 | %3
w: Tunc am- ple\- * * * *|* xus, tunc o\- * *|* * scu- la|
w: Tam quod quae\- * * * *|* si- vi vi\- * *|* * de- o:|
[M:4/4][K:treble-8] z2 a2 !>!=g"^," f2 e- | ed c>c !fermata!B2 z!pp! ^d | !>!e2"^," ^d2 f4 | %6
w: Quae vinc- unt mel\-|* lis po- cu- la. Tunc|fe- lix Chri-|
w: Quod con- cu- pi\-|* vi te- ne- o: A-|mo- re Je-|
 ^e f2 e"^," f4 |!mf! !>!cf!>!=e !>!e- ed c>c | !fermata!B8 |] %9
w: sti co- pu- la|Sed in his par\- * va mo- ru-|la.|
w: su lan- gue- o,|Et cor- de to\- * tus ar- de-|o.|
V:3
 z8 |!p! F,2 B,2 A,2 F,=G, | A,3 A,"^," D,2!f! D,2 |[M:4/4] B,,2 A,,2 (B,,>C,) (D,E,) | %4
w: |Tunc am- ple- xus, tunc|o\- scu- la Quae|vinc- unt mel\- * lis *|
w: |Tam quod quae- si- vi|vi- de- o: Quod|con- cu- pi\- * vi *|
 F,3 F, !fermata!B,,2 z!pp! B,, | !>!E,2"^," B,,2 B,2 F,2 | C,2 C,2"^," F,2!mf! F,B, | %7
w: po- cu- la. Tunc|fe- lix Chri- sti|co- pu- la Sed in|
w: te- ne- o: A-|mo- re Je- su|lan- gue- o, Et cor-|
 A, !>!A,2 =G, F,3 F, | !fermata!B,,8 |] %9
w: his par- va mo- ru-|la.|
w: de to- tus ar- de-|o.|

